X: 26
T: House of David Blues
M:2/4
L:1/8
S: Viola "Mom" Ruth - Pioneer Western Folk Tunes (1948)
Z:AK/Fiddler's Companion
K:G
{^A}B/G/D/E/ G/A/G/D/ | F/D/E/^C/ D2 | ^C/D/C/D/ B/G/A/F/ | G4 |
{^A}B/G/D/E/ G/A/G/D/ | F/D/E/^C/ D2 | ^C/D/C/D/ B/^A/B/G/ |
A<d e<d || (f | g/)a/g/e/ f<d | {^A}B/d/B/A/ G2 | C/D/E/G/ A/G/A/B/ |
d>{^A}(BA/) G2 | {^A}B/G/D/E/ G/A/G/D/ | F/D/E/^C/ D2 |
^C/D/C/D/ B/G/A/F/ | G4 ||

%%sep 1 1 500
